resources/icons/20px/detection.svg

<svg width="20" height="20" viewBox="0 0 20 20" fill="none" xmlns="http://www.w3.org/2000/svg">
<path d="M1 0C0.447715 0 0 0.447715 0 1V6C0 6.55228 0.447715 7 1 7C1.55228 7 2 6.55228 2 6V2H6C6.55228 2 7 1.55228 7 1C7 0.447715 6.55228 0 6 0H1Z" fill="black"/>
<path d="M0 19C0 19.5523 0.447715 20 1 20H6C6.55228 20 7 19.5523 7 19C7 18.4477 6.55228 18 6 18H2V14C2 13.4477 1.55228 13 1 13C0.447715 13 0 13.4477 0 14V19Z" fill="black"/>
<path d="M19 20C19.5523 20 20 19.5523 20 19V14C20 13.4477 19.5523 13 19 13C18.4477 13 18 13.4477 18 14V18H14C13.4477 18 13 18.4477 13 19C13 19.5523 13.4477 20 14 20H19Z" fill="black"/>
<path d="M20 1C20 0.447715 19.5523 0 19 0H14C13.4477 0 13 0.447715 13 1C13 1.55228 13.4477 2 14 2H18V6C18 6.55228 18.4477 7 19 7C19.5523 7 20 6.55228 20 6V1Z" fill="black"/>
<path fill-rule="evenodd" clip-rule="evenodd" d="M5 6C5 5.44772 5.44772 5 6 5H14C14.5523 5 15 5.44772 15 6V14C15 14.5523 14.5523 15 14 15H6C5.44772 15 5 14.5523 5 14V6ZM7 13V7H13V13H7Z" fill="black"/>
</svg>

<svg xmlns="http://www.w3.org/2000/svg" viewBox="0 0 20 20">
  <path d="M1 0a1 1 0 0 0-1 1v5a1 1 0 0 0 2 0V2h4a1 1 0 0 0 0-2zM0 19a1 1 0 0 0 1 1h5a1 1 0 1 0 0-2H2v-4a1 1 0 1 0-2 0zM19 20a1 1 0 0 0 1-1v-5a1 1 0 1 0-2 0v4h-4a1 1 0 1 0 0 2zM20 1a1 1 0 0 0-1-1h-5a1 1 0 1 0 0 2h4v4a1 1 0 1 0 2 0zM5 6a1 1 0 0 1 1-1h8a1 1 0 0 1 1 1v8a1 1 0 0 1-1 1H6a1 1 0 0 1-1-1zm2 7V7h6v6z"/>
</svg>
